assets/icons/24px/stroke/bold-24px.svg

<svg width="24" height="24" viewBox="0 0 24 24" fill="none" xmlns="http://www.w3.org/2000/svg">
<path fill-rule="evenodd" clip-rule="evenodd" d="M3 3C3 2.44772 3.44772 2 4 2H13.5455V3C13.5455 2 13.5451 2 13.5455 2L13.5471 2L13.5493 2.00001L13.5552 2.00003L13.5729 2.00019C13.5873 2.00036 13.6068 2.00068 13.6311 2.00128C13.6798 2.00246 13.7477 2.00476 13.8321 2.00918C14.0008 2.01802 14.2372 2.03543 14.519 2.06989C15.0776 2.13816 15.8402 2.27629 16.617 2.56112C17.389 2.84418 18.2311 3.29258 18.8877 4.01483C19.5639 4.75863 20 5.74752 20 7C20 9.49702 18.4151 11.0171 17.0145 11.8575C16.9517 11.8951 16.889 11.9317 16.8265 11.967C16.8851 11.9992 16.9439 12.0324 17.0028 12.0666C18.4285 12.8959 20 14.4218 20 17C20 18.2275 19.6103 19.2085 18.9784 19.9585C18.3616 20.6905 17.5614 21.1477 16.8101 21.4368C15.3257 22.008 13.8137 22.0047 13.5595 22.0005L13.5315 22.0001L13.5273 22L13.5262 22L13.525 22L4 22C3.44772 22 3 21.5523 3 21C3 20.4477 3.44772 20 4 20H6.63636V4H4C3.44772 4 3 3.55228 3 3ZM8.63636 4V20H13.5118L13.5424 20.0001L13.5919 20.0008C13.7729 20.0037 14.973 20.0008 16.0919 19.5702C16.6424 19.3584 17.1166 19.0642 17.4489 18.6698C17.766 18.2935 18 17.7732 18 17C18 15.3943 17.0715 14.4203 15.9972 13.7955C15.4583 13.482 14.9102 13.2767 14.4915 13.15C14.284 13.0872 14.113 13.0451 13.9972 13.0192C13.9394 13.0063 13.8957 12.9976 13.8684 12.9924L13.8403 12.9872L13.8389 12.9869C13.8386 12.9869 13.8391 12.9869 13.8389 12.9869C13.8392 12.987 13.8389 12.9869 14 12C13.8039 11.0194 13.8035 11.0195 13.8032 11.0195M13.8032 11.0195C13.8033 11.0195 13.8031 11.0195 13.8032 11.0195C13.8029 11.0196 13.802 11.0198 13.8016 11.0198C13.3288 11.1155 12.9916 11.5352 13.0002 12.0177C13.0088 12.5008 13.3622 12.9087 13.8389 12.9869M13.5436 4C13.5432 4 13.5433 4 13.5436 4Z" fill="white"/>
</svg>

<svg width="24" height="24" fill="none" xmlns="http://www.w3.org/2000/svg"><path fill-rule="evenodd" clip-rule="evenodd" d="M3 3a1 1 0 0 1 1-1h9.546v0h.027a4.543 4.543 0 0 1 .26.01c.168.008.404.025.686.06a9.557 9.557 0 0 1 2.098.491c.772.283 1.614.732 2.27 1.454C19.565 4.759 20 5.748 20 7c0 2.497-1.585 4.017-2.985 4.857a8.592 8.592 0 0 1-.189.11c.06.032.118.065.177.1C18.428 12.896 20 14.422 20 17c0 1.227-.39 2.209-1.022 2.959-.616.732-1.417 1.189-2.168 1.478-1.484.571-2.996.568-3.25.563H4a1 1 0 1 1 0-2h2.636V4H4a1 1 0 0 1-1-1zm5.636 1v16h4.956c.18.004 1.381 0 2.5-.43.55-.212 1.025-.506 1.357-.9.317-.377.551-.897.551-1.67 0-1.606-.928-2.58-2.003-3.204a7.168 7.168 0 0 0-2.129-.804l-.028-.005h-.001L14 12l-.197-.98m0 0h-.001a1 1 0 0 0 .037 1.967M13.544 4z" fill="#fff"/></svg>
